X: 5
T: The Whistler Of Rosslea
R: reel
M: 4/4
L: 1/8
K: Gdor
GABc d2cA|dAcA BG~G2|FGAB ~c2Bc|d_ecd BcAB|
GABG ABcA|defd gfdc|Bcc/c/B c_eAc|BGAF G4:|
|:g2dg Bgdg|~g2ag gfde|~f2cf Afcf|fedc BGFA|
Gggf gfdc|Bcde f3g|gfdc Bcc/c/B|cFAF G4:|


Tune 304	Setting 23099

